cellphone.svg

<svg fill="currentColor" viewBox="0 0 24 24"><path d="M17 19H7V5h10m0-4H7c-1.11 0-2 .89-2 2v18a2 2 0 0 0 2 2h10a2 2 0 0 0 2-2V3a2 2 0 0 0-2-2"/></svg>

<svg  viewBox="0 0 24 24" fill="currentColor"><path  d="M17,19H7V5H17M17,1H7C5.89,1 5,1.89 5,3V21A2,2 0 0,0 7,23H17A2,2 0 0,0 19,21V3C19,1.89 18.1,1 17,1Z"/></svg>
